assets/images/_sprite_logo5.svg

<svg width="112" height="117" viewBox="0 0 112 117" fill="none" xmlns="http://www.w3.org/2000/svg">
<path fill-rule="evenodd" clip-rule="evenodd" d="M15.4682 116.04C11.4417 116.04 7.65457 114.402 4.80397 111.432C1.95806 108.463 0.391975 104.516 0.394657 100.313C0.394657 96.113 1.96544 92.1637 4.81268 89.1939C5.40935 88.5674 6.08111 87.9942 6.93521 87.3927C7.19265 87.2055 7.43065 87.0573 7.67535 86.901C8.23313 86.5669 8.78958 86.2624 9.30781 86.0139C9.59005 85.8825 9.88034 85.7458 10.1854 85.6246C10.7271 85.4151 11.3318 85.2271 12.0223 85.0567C12.1604 85.0177 12.2824 84.984 12.4058 84.9469C12.4829 84.9254 12.558 84.8984 12.6364 84.8782L15.9912 84.6398C16.4169 84.6593 16.8721 84.7159 17.3575 84.7812L17.5492 84.8082C17.6632 84.823 17.8174 84.8351 17.9716 84.8446L18.1077 84.8547L18.2612 84.8863H18.3939C18.6393 84.8957 18.8847 84.9005 19.1274 84.9005C24.9097 84.9005 30.6182 82.3301 34.7896 77.8521C38.9434 73.3936 41.2316 67.3953 41.0673 61.3923L41.0626 61.2145L41.0304 61.0293C40.9996 60.8616 40.9902 60.6911 40.9795 60.5227C40.9654 60.3207 40.9487 60.1206 40.9252 59.9185L40.8876 59.5649C40.8548 59.2625 40.8226 58.9674 40.8038 58.6657L41.0606 55.1529C41.0767 55.0654 41.1075 54.9845 41.1303 54.8997L41.1913 54.6828C41.3462 54.0173 41.5111 53.3497 41.7525 52.7044C41.8758 52.3367 41.9945 52.0659 42.1232 51.7884C42.3914 51.1747 42.6689 50.6163 42.9961 50.0438C43.1382 49.7952 43.2763 49.5447 43.4406 49.3008C44.0486 48.3746 44.6024 47.666 45.177 47.0665C48.0229 44.0967 51.8067 42.4619 55.8392 42.4619C59.8637 42.4619 63.6529 44.094 66.5008 47.0618C72.3703 53.1941 72.3656 63.174 66.4874 69.3076C65.8934 69.9294 65.219 70.4999 64.3629 71.1108C64.1121 71.2887 63.8748 71.4375 63.6361 71.5837C63.0951 71.9218 62.5487 72.2216 62.005 72.4829C61.7107 72.6217 61.4164 72.7625 61.1315 72.8729C60.5549 73.0966 59.9435 73.2865 59.3012 73.4374L58.9399 73.5425C58.8574 73.5667 58.7783 73.5937 58.6965 73.6159L55.3096 73.8665C54.912 73.8496 54.4964 73.7937 54.0552 73.7344L53.7542 73.696C53.6537 73.6785 53.4948 73.6664 53.3366 73.657L53.2172 73.6449L53.0443 73.6105H52.9088C52.6615 73.6011 52.4188 73.5984 52.1734 73.5984C46.3904 73.5984 40.6845 76.1661 36.5152 80.6441C32.3593 85.1052 30.0719 91.1082 30.2354 97.1112L30.2401 97.2897L30.2723 97.4675C30.3032 97.6386 30.3099 97.8063 30.3239 97.9768C30.3373 98.1788 30.3548 98.3782 30.3776 98.5783C30.3849 98.6982 30.4077 98.9144 30.4339 99.1272C30.4587 99.3677 30.4895 99.6021 30.4895 99.8426V99.9281L30.2462 103.295C30.2314 103.366 30.1228 103.753 30.0926 103.875C29.9291 104.601 29.7454 105.245 29.5396 105.821C29.4269 106.144 29.313 106.421 29.1802 106.71C28.9181 107.308 28.6338 107.88 28.3114 108.463C28.1686 108.701 28.001 108.981 27.8307 109.25C27.2702 110.098 26.7144 110.811 26.1191 111.435C23.2799 114.402 19.4961 116.04 15.4703 116.04H15.4682Z" fill="#EDC128"/>
</svg>

<svg width="112" height="117" fill="none" xmlns="http://www.w3.org/2000/svg"><path fill-rule="evenodd" clip-rule="evenodd" d="M15.468 116.04c-4.026 0-7.813-1.638-10.664-4.608-2.846-2.969-4.412-6.916-4.41-11.119 0-4.2 1.571-8.15 4.419-11.12.596-.626 1.268-1.199 2.122-1.8.258-.188.496-.336.74-.492a20.419 20.419 0 011.633-.887c.282-.132.572-.268.877-.39a15.202 15.202 0 011.837-.567c.138-.04.26-.073.384-.11.077-.022.152-.049.23-.069l3.355-.238c.426.02.881.076 1.367.141l.191.027c.114.015.268.027.423.037l.136.01.153.031h.133c.245.01.49.014.733.014 5.783 0 11.491-2.57 15.663-7.048 4.153-4.458 6.442-10.457 6.277-16.46l-.004-.178-.033-.185c-.03-.167-.04-.338-.05-.506a13.867 13.867 0 00-.055-.605l-.037-.353a19.54 19.54 0 01-.084-.9l.257-3.512c.016-.088.047-.169.07-.253l.06-.217c.155-.666.32-1.333.561-1.979.124-.367.242-.638.371-.916a17.83 17.83 0 01.873-1.744c.142-.249.28-.5.445-.743.608-.926 1.161-1.635 1.736-2.235 2.846-2.97 6.63-4.604 10.662-4.604 4.025 0 7.814 1.632 10.662 4.6 5.87 6.132 5.865 16.112-.014 22.246-.594.621-1.268 1.192-2.124 1.803-.25.178-.488.326-.727.473-.54.338-1.087.638-1.631.899-.294.139-.589.28-.873.39-.577.224-1.188.413-1.83.564l-.362.106c-.083.024-.162.05-.243.073l-3.387.25a13.517 13.517 0 01-1.255-.132l-.3-.038a4.388 4.388 0 00-.418-.039l-.12-.012-.173-.034h-.135a18.13 18.13 0 00-.736-.013c-5.783 0-11.489 2.568-15.658 7.046-4.156 4.461-6.443 10.464-6.28 16.467l.005.179.032.177c.031.172.038.34.052.51.013.202.03.401.054.601.007.12.03.336.056.55.025.24.055.474.055.715v.085l-.243 3.367c-.015.071-.123.458-.153.58-.164.726-.348 1.37-.553 1.946a9.77 9.77 0 01-.36.889c-.262.598-.546 1.17-.869 1.753-.142.238-.31.518-.48.787a15.518 15.518 0 01-1.712 2.185c-2.84 2.967-6.623 4.605-10.649 4.605h-.002z" fill="#EDC128"/></svg>
